local/share/icons/dracula-icons-main/scalable/apps/deluge.svg

<svg width="64" height="64" version="1.1" viewBox="0 0 16.933 16.933" xmlns="http://www.w3.org/2000/svg">
 <circle cx="8.4665" cy="8.4665" r="7.1436" fill="#7091e3" style="paint-order:stroke markers fill"/>
 <circle cx="8.467" cy="8.466" r="5.8202" opacity=".1" style="paint-order:stroke markers fill"/>
 <path d="m8.4665 4.2332c-0.054203 0.14097-0.11531 0.28389-0.17762 0.42023-0.00529 0.011729-0.013033 0.021818-0.018338 0.03354-0.057489 0.12423-0.11455 0.24042-0.17762 0.361-0.013083 0.025073-0.024431 0.050702-0.037723 0.07545-0.056985 0.10652-0.11664 0.21541-0.1771 0.31906-0.020997 0.036048-0.044136 0.073854-0.065489 0.10951-0.54071 0.8856-1.2516 1.8104-1.8129 2.5867-0.4447 0.58409-0.70042 1.2147-0.77544 1.8228 0 1.5103 1.4502 2.7381 3.2422 2.7381s3.2422-1.2278 3.2422-2.7381c0-0.95163-0.77623-1.9297-1.6724-3.1835-0.28368-0.38946-0.55769-0.79891-0.80374-1.1841-0.13355-0.21091-0.26417-0.42801-0.39244-0.65492-0.04007-0.070956-0.082263-0.14598-0.12156-0.2185-0.084934-0.15712-0.17169-0.32205-0.25202-0.48728zm0 1.1433c0 1.4609 0.36721 2.6602 0.76392 4.1408h0.93158l-0.84775 1.0165-0.84775 1.0228-0.84775-1.0228-0.84775-1.0165h0.97402c0.41221-1.5384 0.72148-2.6833 0.72148-4.1408z" fill="#fff"/>
</svg>

<?xml version="1.0" encoding="UTF-8"?>
<svg xmlns="http://www.w3.org/2000/svg" xmlns:xlink="http://www.w3.org/1999/xlink" width="64" height="64" viewBox="0 0 64 64">
<defs>
<filter id="filter-remove-color" x="0%" y="0%" width="100%" height="100%">
<feColorMatrix color-interpolation-filters="sRGB" values="0 0 0 0 1 0 0 0 0 1 0 0 0 0 1 0 0 0 1 0" />
</filter>
<mask id="mask-0">
<g filter="url(#filter-remove-color)">
<rect x="-6.4" y="-6.4" width="76.8" height="76.8" fill="rgb(0%, 0%, 0%)" fill-opacity="0.1"/>
</g>
</mask>
<clipPath id="clip-0">
<rect x="0" y="0" width="17" height="17"/>
</clipPath>
<g id="source-6401" clip-path="url(#clip-0)">
<path fill-rule="nonzero" fill="rgb(0%, 0%, 0%)" fill-opacity="1" d="M 14.289062 8.464844 C 14.289062 11.679688 11.679688 14.285156 8.46875 14.285156 C 5.253906 14.285156 2.648438 11.679688 2.648438 8.464844 C 2.648438 5.25 5.253906 2.644531 8.46875 2.644531 C 11.679688 2.644531 14.289062 5.25 14.289062 8.464844 Z M 14.289062 8.464844 "/>
</g>
</defs>
<path fill-rule="nonzero" fill="rgb(43.921569%, 56.862745%, 89.019608%)" fill-opacity="1" d="M 15.609375 8.464844 C 15.609375 12.410156 12.410156 15.609375 8.464844 15.609375 C 4.519531 15.609375 1.324219 12.410156 1.324219 8.464844 C 1.324219 4.519531 4.519531 1.324219 8.464844 1.324219 C 12.410156 1.324219 15.609375 4.519531 15.609375 8.464844 Z M 15.609375 8.464844 "/>
<g mask="url(#mask-0)">
<use xlink:href="#source-6401"/>
</g>
<path fill-rule="nonzero" fill="rgb(100%, 100%, 100%)" fill-opacity="1" d="M 8.464844 4.234375 C 8.414062 4.375 8.351562 4.515625 8.289062 4.652344 C 8.285156 4.664062 8.277344 4.675781 8.269531 4.6875 C 8.214844 4.8125 8.15625 4.925781 8.09375 5.046875 C 8.078125 5.074219 8.070312 5.097656 8.054688 5.125 C 8 5.230469 7.9375 5.339844 7.878906 5.441406 C 7.855469 5.480469 7.832031 5.515625 7.8125 5.550781 C 7.273438 6.4375 6.5625 7.363281 6 8.140625 C 5.554688 8.722656 5.300781 9.351562 5.222656 9.960938 C 5.222656 11.472656 6.675781 12.699219 8.464844 12.699219 C 10.257812 12.699219 11.707031 11.472656 11.707031 9.960938 C 11.707031 9.011719 10.933594 8.03125 10.035156 6.777344 C 9.753906 6.386719 9.480469 5.980469 9.234375 5.59375 C 9.097656 5.382812 8.96875 5.164062 8.839844 4.9375 C 8.800781 4.867188 8.757812 4.792969 8.71875 4.71875 C 8.632812 4.5625 8.546875 4.398438 8.464844 4.234375 Z M 8.464844 5.375 C 8.464844 6.835938 8.832031 8.035156 9.230469 9.515625 L 10.160156 9.515625 L 8.464844 11.554688 L 6.769531 9.515625 L 7.746094 9.515625 C 8.15625 7.980469 8.464844 6.835938 8.464844 5.375 Z M 8.464844 5.375 "/>
</svg>
